X: 1608
T: the Midnight Dance
R: hornpipe, reel
B: O'Neill's 1850 #1608
O: J.O'Neill
Z: Michael D. Long, 10/05/98
Z: Michael Hogan
Z: Compacted via repeats and multiple endings [JC]
M: 2/4
L: 1/16
K: G
   D2 |: GFGA GBdB | AGAB ABcB | ABcd efge |1,3 dgfe dcBA :|2,4 dcBA HG2 :|
|: B2 |: Adcd Agfe | defg a2f2 | efge cABc |1,3 dfec A2F2 :|2,4 d2f2 "_D.C."d2 :|
